svgs/thin/eggplant.svg

<svg xmlns="http://www.w3.org/2000/svg" viewBox="0 0 512 512"><!--! Font Awesome Pro 6.0.0-alpha3 by @fontawesome - https://fontawesome.com License - https://fontawesome.com/license (Commercial License) --><path d="M512 8C512 3.43 508.3 0 504 0c-2.047 0-4.094 .7813-5.656 2.344l-28.87 28.87C457.6 21.84 442.9 16 426.7 16h-106.7c-8.836 0-16 7.162-16 16c0 6.834 1.215 13.35 3.064 19.59c-15.01 9.996-122.7 101.8-206.3 134.5C31.94 214.6 .0005 275.1 .0005 337.4c0 141.1 129.2 174.7 172.6 174.7c30.18 0 60.75-8.003 88.52-24.79c15.89-11.12 61.11-51.44 124.7-148.1c28.85-44.18 53.76-88.74 76.52-133.6C468 206.1 473.9 208 480 208c8.838 0 16-7.164 16-16V85.33c0-16.23-5.838-30.98-15.21-42.8l28.87-28.87C511.2 12.09 512 10.05 512 8zM372.4 330.3c-70.45 107.1-115.6 140.4-119.6 143.2C228.5 488.2 200.7 496 172.6 496c-111.5 0-156.6-97.02-156.6-158.6c0-4.178-3.336-97.43 90.61-136.4c85.24-33.37 194.3-125.5 206.7-134.4c9.676 16.72 26.11 29.06 45.55 33.21c5.68 26.63 26.7 47.65 53.33 53.33c4.299 20.16 17.46 36.1 35.12 46.51C423.6 246.3 399.1 289.5 372.4 330.3zM480 192c-29.46 0-53.33-23.88-53.33-53.33c-29.46 0-53.33-23.88-53.33-53.33c-29.45 0-53.33-23.88-53.33-53.33h106.7C456.1 32 480 55.88 480 85.33V192z"/></svg>

<svg xmlns="http://www.w3.org/2000/svg" viewBox="0 0 512 512"><!-- Font Awesome Pro 6.0.0-alpha2 by @fontawesome - https://fontawesome.com License - https://fontawesome.com/license (Commercial License) --><path d="M512 8C512 3.43 508.263 0 504 0C501.953 0 499.906 0.781 498.343 2.344L469.472 31.215C457.646 21.838 442.898 16 426.668 16H320.002C311.166 16 304.002 23.162 304.002 32C304.002 38.834 305.216 45.348 307.066 51.588C292.051 61.584 184.341 153.356 100.761 186.076C31.933 214.647 0 275.951 0 337.356C0 478.473 129.153 512 172.56 512C202.74 512 233.316 504.004 261.078 487.215C276.964 476.09 322.185 435.777 385.804 339.088C414.65 294.912 439.572 250.344 462.326 205.451C468 206.957 473.859 208 480 208C488.837 208 496 200.836 496 192V85.332C496 69.102 490.162 54.354 480.785 42.527L509.656 13.656C511.218 12.094 512 10.047 512 8ZM372.437 330.293C301.986 437.367 256.818 470.664 252.796 473.523C228.486 488.229 200.74 496 172.56 496C61.071 496 15.988 398.978 15.988 337.405C15.988 333.226 12.652 239.978 106.595 200.975C191.832 167.609 300.908 75.433 313.302 66.605C322.978 83.324 339.408 95.666 358.855 99.813C364.535 126.447 385.554 147.465 412.189 153.145C416.488 173.309 429.644 190.141 447.306 199.65C423.591 246.295 399.099 289.461 372.437 330.293ZM480 192C450.545 192 426.668 168.121 426.668 138.666C397.212 138.666 373.334 114.787 373.334 85.332C343.88 85.332 320.002 61.453 320.002 32H426.668C456.123 32 480 55.877 480 85.332V192Z"/></svg>
